X: 307
U:~=!turn!
M:C
L:1/8
K:C
E<cG>E {DE}F<DD>F | TE>FG>E {EF}G>A d>f | e<cG>B c<CC || (e/f/) | g>e{/B}c>e g>ag>e | f>d {/f}(ed/c/) B>dde/f/ |
g>e{/B}c>e g>ag>e | f>dg>G A>{/B}c ce/f/ | g>e{/B}(c>e g)>ag>e | f>d {/f}ed/c/ B<dd>f | e>g G>E F>d F>D | (B>c)d>f e<cc |]


